%
(Header)
(Generated by gcodetools from Inkscape.)
(Using default header. To add your own header create file "header" in the output dir.)
M3
(Header end.)
G21 (All units in mm)

(Start cutting path id: path51915)
(Change tool to Default tool)

G00 Z5.000000
G00 X1.777621 Y34.138360

G01 Z-0.125000 F10.0(Penetrate)
G01 X55.357894 Y34.346520 Z-0.125000 F10.000000
G00 Z5.000000

(End cutting path id: path51915)


(Start cutting path id: path51913)
(Change tool to Default tool)

G00 Z5.000000
G00 X5.048859 Y4.713180

G01 Z-0.125000 F10.0(Penetrate)
G01 X28.261037 Y69.466600 Z-0.125000 F10.000000
G01 X48.102977 Y5.589030 Z-0.125000
G00 Z5.000000

(End cutting path id: path51913)


(Footer)
M5
G00 X0.0000 Y0.0000
M2
(Using default footer. To add your own footer create file "footer" in the output dir.)
(end)
%