%
(Header)
(Generated by gcodetools from Inkscape.)
(Using default header. To add your own header create file "header" in the output dir.)
M3
(Header end.)
G21 (All units in mm)

(Start cutting path id: path230)
(Change tool to Default tool)

G00 Z5.000000
G00 X77.852614 Y11.464710

G01 Z-0.125000 F10.0(Penetrate)
G03 X78.368698 Y11.482360 Z-0.125000 I-0.000000 J7.553872 F10.000000
G02 X78.882339 Y11.464710 Z-0.125000 I0.171212 J-2.500156
G02 X79.737440 Y11.280066 Z-0.125000 I-0.790808 J-5.734646
G03 X80.591288 Y11.086980 Z-0.125000 I1.889761 J6.372273
G03 X81.844779 Y11.022959 Z-0.125000 I0.929090 J5.887708
G02 X83.087137 Y10.904480 Z-0.125000 I0.227965 J-4.182432
G02 X83.155346 Y10.817249 Z-0.125000 I-0.021794 J-0.087325
G03 X83.231563 Y10.741110 Z-0.125000 I0.076217 J0.000079
G00 Z5.000000

(End cutting path id: path230)


(Start cutting path id: path80)
(Change tool to Default tool)

G00 Z5.000000
G00 X77.161641 Y14.685970

G01 Z-0.125000 F10.0(Penetrate)
G03 X78.340000 Y14.515842 Z-0.125000 I7.255729 J46.089580 F10.000000
G02 X79.512821 Y14.315830 Z-0.125000 I-2.024293 J-15.408506
G02 X80.373171 Y14.132923 Z-0.125000 I-40.058379 J-190.539951
G02 X81.180544 Y13.815320 Z-0.125000 I-0.561615 J-2.612674
G02 X81.354015 Y13.486837 Z-0.125000 I-0.182892 J-0.306632
G03 X81.344187 Y13.165960 Z-0.125000 I5.233101 J-0.320877
G02 X80.902104 Y10.863763 Z-0.125000 I-6.215522 J-0.000000
G02 X79.791607 Y8.765390 Z-0.125000 I-10.294470 J4.104988
G02 X78.769263 Y7.956128 Z-0.125000 I-1.786859 J1.206950
G03 X78.603191 Y7.262190 Z-0.125000 I0.152983 J-0.403452
G03 X80.205776 Y6.626181 Z-0.125000 I1.452258 J1.322269
G02 X81.788092 Y6.606680 Z-0.125000 I0.681813 J-8.881849
G03 X82.385156 Y6.591397 Z-0.125000 I0.399185 J3.924492
G02 X82.994127 Y6.606680 Z-0.125000 I0.608971 J-12.124658
G00 Z5.000000

(End cutting path id: path80)


(Start cutting path id: path78)
(Change tool to Default tool)

G00 Z5.000000
G00 X71.954013 Y15.883200

G01 Z-0.125000 F10.0(Penetrate)
G03 X70.679109 Y16.014360 Z-0.125000 I-2.645157 J-19.449784 F10.000000
G03 X69.149653 Y16.017330 Z-0.125000 I-0.786559 J-11.239943
G03 X67.739712 Y15.209663 Z-0.125000 I0.122084 J-1.847621
G03 X67.676861 Y13.566880 Z-0.125000 I1.284198 J-0.871725
G03 X69.794226 Y12.161842 Z-0.125000 I2.458816 J1.407455
G02 X71.987771 Y11.504900 Z-0.125000 I-0.814768 J-6.711150
G02 X72.848483 Y10.965507 Z-0.125000 I-2.295021 J-4.618588
G03 X73.698918 Y10.406640 Z-0.125000 I4.044331 J5.227824
G03 X74.689786 Y9.969528 Z-0.125000 I2.948139 J5.341362
G02 X75.500915 Y9.156920 Z-0.125000 I-0.415084 J-1.225459
G02 X75.144956 Y8.538861 Z-0.125000 I-0.450931 J-0.151828
G03 X74.519055 Y8.344160 Z-0.125000 I0.651186 J-3.196734
G02 X72.170884 Y7.994171 Z-0.125000 I-1.847447 J4.342777
G02 X69.859843 Y8.347160 Z-0.125000 I2.740549 J25.684335
G03 X69.685777 Y8.324658 Z-0.125000 I-0.053703 J-0.269076
G02 X69.534874 Y8.347160 Z-0.125000 I-0.059081 J0.121034
G02 X69.305141 Y9.080978 Z-0.125000 I0.529899 J0.568763
G03 X69.209624 Y9.978290 Z-0.125000 I-1.401593 J0.304543
G00 Z5.000000

(End cutting path id: path78)


(Start cutting path id: path76)
(Change tool to Default tool)

G00 Z5.000000
G00 X58.266432 Y14.288210

G01 Z-0.125000 F10.0(Penetrate)
G03 X59.363617 Y10.446507 Z-0.125000 I6.441357 J-0.237886 F10.000000
G02 X58.291882 Y7.654050 Z-0.125000 I-1.513873 J-1.020873
G02 X57.311030 Y7.784342 Z-0.125000 I-0.325691 J1.305283
G02 X56.982733 Y7.980780 Z-0.125000 I3.049022 J5.468239
G02 X54.946979 Y11.251645 Z-0.125000 I2.417470 J3.773558
G02 X54.737345 Y14.977630 Z-0.125000 I33.007500 J3.725985
G03 X54.694553 Y15.597776 Z-0.125000 I-4.515044 J0.000000
G02 X54.737345 Y16.206030 Z-0.125000 I1.462239 J0.202762
G02 X54.853744 Y16.606923 Z-0.125000 I30.976140 J-8.776573
G02 X55.555562 Y17.022850 Z-0.125000 I0.575606 J-0.171181
G02 X56.927286 Y15.802437 Z-0.125000 I-0.391999 J-1.821704
G03 X57.585286 Y14.522570 Z-0.125000 I4.671492 J1.592612
G03 X59.588714 Y11.843851 Z-0.125000 I64.882694 J46.437564
G02 X61.211738 Y8.896970 Z-0.125000 I-8.336445 J-6.511768
G02 X61.852213 Y5.072072 Z-0.125000 I-10.321216 J-3.694347
G03 X62.865434 Y2.587150 Z-0.125000 I3.452888 J-0.041123
G03 X63.908497 Y2.635726 Z-0.125000 I0.499367 J0.500220
G03 X64.051009 Y5.000290 Z-0.125000 I-1.540162 J1.279402
G00 Z5.000000

(End cutting path id: path76)


(Start cutting path id: path74)
(Change tool to Default tool)

G00 Z5.000000
G00 X49.151489 Y16.319350

G01 Z-0.125000 F10.0(Penetrate)
G03 X47.870009 Y15.779403 Z-0.125000 I19.254148 J-47.487389 F10.000000
G02 X46.575218 Y15.274790 Z-0.125000 I-6.839592 J15.636304
G02 X44.934731 Y14.767597 Z-0.125000 I-8.986882 J26.160946
G03 X43.280850 Y14.302640 Z-0.125000 I43.456326 J-157.750739
G02 X42.855005 Y14.223547 Z-0.125000 I-0.625621 J2.182456
G03 X42.288639 Y13.975920 Z-0.125000 I0.085407 J-0.966846
G01 X42.294778 Y13.966113 Z-0.125000
G02 X43.306301 Y13.975920 Z-0.125000 I0.518213 J-1.279384
G02 X45.014387 Y12.717397 Z-0.125000 I-1.423836 J-3.720832
G03 X46.317446 Y11.093040 Z-0.125000 I83.416715 J65.582036
G02 X46.473140 Y10.893071 Z-0.125000 I-4.027994 J-3.296759
G03 X48.346687 Y8.423104 Z-0.125000 I106.169434 J78.587252
G03 X50.227444 Y6.075178 Z-0.125000 I80.827290 J62.817774
G03 X50.446254 Y6.048390 Z-0.125000 I0.123528 J0.101965
G03 X50.489006 Y6.303413 Z-0.125000 I-0.110756 J0.149662
G02 X50.446254 Y6.621020 Z-0.125000 I0.293032 J0.201125
G02 X50.723500 Y7.185672 Z-0.125000 I2.431784 J-0.843624
G03 X51.113616 Y8.136360 Z-0.125000 I-2.282903 J1.492179
G03 X51.141089 Y8.682947 Z-0.125000 I-1.798637 J0.364387
G02 X51.113616 Y9.235010 Z-0.125000 I5.533108 J0.552063
G00 Z5.000000

(End cutting path id: path74)


(Start cutting path id: path70)
(Change tool to Default tool)

G00 Z5.000000
G00 X26.131823 Y24.967700

G01 Z-0.125000 F10.0(Penetrate)
G03 X26.278922 Y24.429311 Z-0.125000 I18.496361 J4.764308 F10.000000
G02 X26.410090 Y23.887340 Z-0.125000 I-6.107630 J-1.765025
G02 X27.034651 Y20.124622 Z-0.125000 I-64.333582 J-12.611713
G03 X27.606535 Y16.351960 Z-0.125000 I125.628611 J17.113898
G02 X27.610184 Y13.471166 Z-0.125000 I-8.690147 J-1.451407
G03 X29.160589 Y10.437240 Z-0.125000 I2.832401 J-0.465688
G03 X29.715066 Y10.300227 Z-0.125000 I0.582541 J1.167017
G02 X30.299863 Y10.273880 Z-0.125000 I-0.267951 J-12.450817
G03 X31.668538 Y10.340279 Z-0.125000 I0.401798 J5.857124
G03 X32.952561 Y10.911930 Z-0.125000 I-0.461641 J2.764814
G03 X36.063352 Y18.269982 Z-0.125000 I-5.202434 J6.536058
G02 X35.629350 Y27.069930 Z-0.125000 I88.998197 J8.799948
G01 X35.629350 Y26.920790 Z-0.125000
G02 X35.564466 Y26.459819 Z-0.125000 I-15.290326 J1.917125
G03 X35.495151 Y25.999450 Z-0.125000 I41.832335 J-6.533885
G03 X35.369722 Y24.831420 Z-0.125000 I15.730047 J-2.279927
G03 X35.328071 Y23.642100 Z-0.125000 I16.959509 J-1.189320
G02 X35.258277 Y18.028983 Z-0.125000 I-225.748580 J-0.000000
G03 X35.491714 Y12.422200 Z-0.125000 I42.224922 J-1.050225
G03 X35.648446 Y11.511234 Z-0.125000 I7.380875 J0.800913
G02 X35.841495 Y10.605620 Z-0.125000 I-19.892769 J-4.713917
G02 X35.868826 Y10.169802 Z-0.125000 I-1.724000 J-0.326879
G03 X36.005138 Y9.788800 Z-0.125000 I0.511660 J-0.031827
G03 X36.126379 Y9.777821 Z-0.125000 I0.063763 J0.029210
G02 X36.250803 Y9.788800 Z-0.125000 I0.066819 J-0.046720
G02 X36.271735 Y9.691370 Z-0.125000 I-0.064945 J-0.064916
G01 X36.250803 Y9.695200 Z-0.125000
G02 X36.273366 Y10.211874 Z-0.125000 I5.926998 J-0.000000
G02 X36.414447 Y10.710350 Z-0.125000 I1.376863 J-0.120484
G00 Z5.000000

(End cutting path id: path70)


(Start cutting path id: path72)
(Change tool to Default tool)

G00 Z5.000000
G00 X41.285124 Y39.382250

G01 Z-0.125000 F10.0(Penetrate)
G02 X41.735745 Y36.828017 Z-0.125000 I-25.971948 J-5.898874 F10.000000
G02 X42.295993 Y32.188220 Z-0.125000 I-403.416994 J-51.065635
G02 X43.202898 Y21.824678 Z-0.125000 I-190.479171 J-21.890121
G03 X43.836744 Y11.442390 Z-0.125000 I6324.185294 J380.885696
G02 X44.175971 Y5.177772 Z-0.125000 I-406.573757 J-25.157305
G03 X44.446570 Y5.184050 Z-0.125000 I0.135227 J0.006278
G00 Z5.000000

(End cutting path id: path72)


(Start cutting path id: path66)
(Change tool to Default tool)

G00 Z5.000000
G00 X18.667219 Y34.908730

G01 Z-0.125000 F10.0(Penetrate)
G02 X18.683314 Y36.874110 Z-0.125000 I38.916160 J0.664059 F10.000000
G03 X18.600259 Y38.832830 Z-0.125000 I-12.934045 J0.432682
G03 X17.764440 Y41.070156 Z-0.125000 I-5.002532 J-0.594057
G03 X15.813242 Y42.551130 Z-0.125000 I-3.175383 J-2.157750
G03 X15.324236 Y42.591426 Z-0.125000 I-0.326013 J-0.968994
G02 X14.821952 Y42.551130 Z-0.125000 I-0.502284 J3.110262
G03 X13.414016 Y42.429845 Z-0.125000 I-0.000000 J-8.232631
G03 X11.882119 Y41.774710 Z-0.125000 I0.618949 J-3.565863
G03 X10.131835 Y39.248844 Z-0.125000 I2.830834 J-3.830967
G03 X9.653792 Y36.322690 Z-0.125000 I12.361337 J-3.521584
G03 X9.833322 Y31.419108 Z-0.125000 I29.583869 J-1.371954
G03 X10.490388 Y26.573120 Z-0.125000 I159.360498 J19.140100
G03 X10.887102 Y24.466313 Z-0.125000 I29.350805 J4.436034
G02 X11.202654 Y22.333510 Z-0.125000 I-13.967305 J-3.156233
G02 X11.239750 Y19.918740 Z-0.125000 I-21.453321 J-1.537238
G02 X10.664859 Y17.549630 Z-0.125000 I-6.214747 J0.253771
G03 X10.329284 Y16.825163 Z-0.125000 I237.754879 J-110.568598
G02 X9.889709 Y16.170280 Z-0.125000 I-2.263137 J1.044109
G02 X8.066342 Y14.934453 Z-0.125000 I-3.610244 J3.363603
G02 X5.714398 Y15.098020 Z-0.125000 I-1.002247 J2.579788
G02 X5.230907 Y15.550700 Z-0.125000 I0.670912 J1.201116
G03 X4.759823 Y16.023750 Z-0.125000 I-1.355601 J-0.878879
G03 X4.518052 Y16.010010 Z-0.125000 I-0.111588 J-0.170484
G02 X4.299496 Y16.023750 Z-0.125000 I-0.101990 J0.122798
G02 X4.163630 Y16.337286 Z-0.125000 I0.370657 J0.346824
G03 X4.128900 Y16.698050 Z-0.125000 I-5.959140 J-0.391624
G02 X4.463199 Y17.635849 Z-0.125000 I1.093118 J0.138818
G02 X5.438049 Y18.020540 Z-0.125000 I0.963779 J-1.014788
G02 X8.968069 Y16.589518 Z-0.125000 I-0.040806 J-5.170064
G02 X11.453193 Y14.156470 Z-0.125000 I-96.699855 J-101.255273
G02 X14.267019 Y11.297380 Z-0.125000 I-231.235729 J-230.389066
G03 X17.391829 Y8.747250 Z-0.125000 I12.596574 J12.245689
G02 X18.166334 Y8.122186 Z-0.125000 I-2.453285 J-3.832188
G03 X19.762345 Y8.073350 Z-0.125000 I0.823799 J0.818525
G03 X20.937921 Y9.953617 Z-0.125000 I-2.625694 J2.949259
G03 X21.467299 Y12.057260 Z-0.125000 I-37.821573 J10.636166
G00 Z5.000000

(End cutting path id: path66)


(Start cutting path id: path68)
(Change tool to Default tool)

G00 Z5.000000
G00 X7.259665 Y25.088480

G01 Z-0.125000 F10.0(Penetrate)
G02 X12.139642 Y24.566355 Z-0.125000 I-1.145245 J-33.770018 F10.000000
G03 X17.015720 Y24.128100 Z-0.125000 I4.876078 J26.906777
G00 Z5.000000

(End cutting path id: path68)


(Footer)
M5
G00 X0.0000 Y0.0000
M2
(Using default footer. To add your own footer create file "footer" in the output dir.)
(end)
%