%
(Header)
(Generated by gcodetools from Inkscape.)
(Using default header. To add your own header create file "header" in the output dir.)
M3
(Header end.)
G21 (All units in mm)

(Start cutting path id: path42)
(Change tool to Default tool)

G00 Z5.000000
G00 X20.332912 Y90.493050

G01 Z-0.125000 F10.0(Penetrate)
G01 X66.088249 Y2.344040 Z-0.125000 F10.000000
G01 X149.190060 Y45.523020 Z-0.125000
G01 X139.172890 Y162.127320 Z-0.125000
G01 X62.088141 Y187.808540 Z-0.125000
G01 X2.494251 Y126.710300 Z-0.125000
G01 X59.930199 Y142.845060 Z-0.125000
G01 X106.978560 Y151.226720 Z-0.125000
G01 X126.041670 Y101.476460 Z-0.125000
G01 X112.708930 Y56.304630 Z-0.125000
G01 X64.451037 Y58.660870 Z-0.125000
G01 X41.091745 Y100.784550 Z-0.125000
G01 X20.332912 Y90.493050 Z-0.125000
G00 Z5.000000

(End cutting path id: path42)


(Footer)
M5
G00 X0.0000 Y0.0000
M2
(Using default footer. To add your own footer create file "footer" in the output dir.)
(end)
%