%
(Header)
(Generated by gcodetools from Inkscape.)
(Using default header. To add your own header create file "header" in the output dir.)
M3
(Header end.)
G21 (All units in mm)

(Start cutting path id: path846)
(Change tool to Default tool)

G00 Z1.500000
G00 X53.972496 Y28.863950

G01 Z0.0 F10.0(Penetrate)
G02 X47.583863 Y13.440431 Z0.0 I-21.812153 J0.000003 F10.000000
G02 X32.160343 Y7.051800 Z0.0 I-15.423520 J15.423522
G02 X16.736823 Y13.440431 Z0.0 I-0.000000 J21.812153
G02 X10.348190 Y28.863950 Z0.0 I15.423520 J15.423522
G02 X12.008539 Y37.211102 Z0.0 I21.812153 J0.000007
G02 X16.736819 Y44.287476 Z0.0 I20.151804 J-8.347145
G02 X23.813192 Y49.015758 Z0.0 I15.423524 J-15.423519
G02 X32.160343 Y50.676110 Z0.0 I8.347151 J-20.151801
G02 X40.507494 Y49.015758 Z0.0 I0.000000 J-21.812153
G02 X47.583867 Y44.287476 Z0.0 I-8.347151 J-20.151801
G02 X52.312147 Y37.211102 Z0.0 I-15.423524 J-15.423519
G02 X53.972496 Y28.863950 Z0.0 I-20.151804 J-8.347145
G01 X53.972496 Y28.863950 Z0.0
G00 Z1.500000

(End cutting path id: path846)


(Footer)
M5
G00 X0.0000 Y0.0000
M2
(Using default footer. To add your own footer create file "footer" in the output dir.)
(end)
%