%
(Header)
(Generated by gcodetools from Inkscape.)
(Using default header. To add your own header create file "header" in the output dir.)
M3
(Header end.)
G21 (All units in mm)

(Start cutting path id: path4996)
(Change tool to Default tool)

G00 Z5.000000
G00 X153.579364 Y77.308000

G01 Z-0.125000 F10.0(Penetrate)
G02 X147.976802 Y49.142016 Z-0.125000 I-73.601264 J0.000000 F10.000000
G02 X132.022053 Y25.264047 Z-0.125000 I-67.998702 J28.165984
G02 X108.144084 Y9.309298 Z-0.125000 I-52.043953 J52.043953
G02 X79.978100 Y3.706736 Z-0.125000 I-28.165984 J67.998702
G02 X51.812116 Y9.309298 Z-0.125000 I-0.000000 J73.601264
G02 X27.934147 Y25.264047 Z-0.125000 I28.165984 J67.998702
G02 X11.979398 Y49.142016 Z-0.125000 I52.043953 J52.043953
G02 X6.376836 Y77.308000 Z-0.125000 I67.998702 J28.165984
G02 X11.979398 Y105.473984 Z-0.125000 I73.601264 J-0.000000
G02 X27.934147 Y129.351953 Z-0.125000 I67.998702 J-28.165984
G02 X51.812116 Y145.306702 Z-0.125000 I52.043953 J-52.043953
G02 X79.978100 Y150.909264 Z-0.125000 I28.165984 J-67.998702
G02 X108.144084 Y145.306702 Z-0.125000 I0.000000 J-73.601264
G02 X132.022053 Y129.351953 Z-0.125000 I-28.165984 J-67.998702
G02 X147.976802 Y105.473984 Z-0.125000 I-52.043953 J-52.043953
G02 X153.579364 Y77.308000 Z-0.125000 I-67.998702 J-28.165984
G01 X153.579364 Y77.308000 Z-0.125000
G00 Z5.000000

(End cutting path id: path4996)


(Start cutting path id: path4974)
(Change tool to Default tool)

G00 Z5.000000
G00 X153.579364 Y77.308000

G01 Z-0.125000 F10.0(Penetrate)
G02 X148.817264 Y62.579367 Z-0.125000 I-25.158040 J0.000000 F10.000000
G02 X132.022053 Y47.455832 Z-0.125000 I-43.480010 J31.398460
G02 X109.541846 Y38.554487 Z-0.125000 I-41.986438 J73.198711
G02 X79.978100 Y35.090659 Z-0.125000 I-29.563746 J124.431276
G02 X50.414354 Y38.554487 Z-0.125000 I0.000000 J127.895103
G02 X27.934147 Y47.455832 Z-0.125000 I19.506231 J82.100057
G02 X11.138936 Y62.579367 Z-0.125000 I26.684799 J46.521995
G02 X6.376836 Y77.308000 Z-0.125000 I20.395939 J14.728633
G02 X11.138936 Y92.036633 Z-0.125000 I25.158040 J0.000000
G02 X27.934147 Y107.160168 Z-0.125000 I43.480010 J-31.398460
G02 X50.414354 Y116.061513 Z-0.125000 I41.986438 J-73.198711
G02 X79.978100 Y119.525341 Z-0.125000 I29.563746 J-124.431276
G02 X109.541846 Y116.061513 Z-0.125000 I0.000000 J-127.895103
G02 X132.022053 Y107.160168 Z-0.125000 I-19.506231 J-82.100057
G02 X148.817264 Y92.036633 Z-0.125000 I-26.684799 J-46.521995
G02 X153.579364 Y77.308000 Z-0.125000 I-20.395939 J-14.728633
G01 X153.579364 Y77.308000 Z-0.125000
G00 Z5.000000

(End cutting path id: path4974)


(Start cutting path id: path4976)
(Change tool to Default tool)

G00 Z5.000000
G00 X152.673209 Y86.739532

G01 Z-0.125000 F10.0(Penetrate)
G02 X147.969738 Y72.192226 Z-0.125000 I-24.848322 J0.000000 F10.000000
G02 X131.381305 Y57.254881 Z-0.125000 I-42.944708 J31.011886
G02 X109.177866 Y48.463123 Z-0.125000 I-41.469519 J72.297488
G02 X79.978100 Y45.041939 Z-0.125000 I-29.199766 J122.899260
G02 X50.778334 Y48.463123 Z-0.125000 I0.000000 J126.320444
G02 X28.574895 Y57.254881 Z-0.125000 I19.266081 J81.089247
G02 X11.986462 Y72.192226 Z-0.125000 I26.356275 J45.949230
G02 X7.282991 Y86.739532 Z-0.125000 I20.144851 J14.547306
G02 X12.328262 Y101.864538 Z-0.125000 I25.193951 J-0.000001
G02 X28.574896 Y116.224182 Z-0.125000 I42.996913 J-32.276489
G02 X49.823587 Y124.756623 Z-0.125000 I41.133086 J-71.710957
G02 X79.978100 Y128.437123 Z-0.125000 I30.154513 J-121.688418
G02 X110.132613 Y124.756623 Z-0.125000 I-0.000000 J-125.368919
G02 X131.381304 Y116.224182 Z-0.125000 I-19.884395 J-80.243398
G02 X147.627938 Y101.864538 Z-0.125000 I-26.750278 J-46.636132
G02 X152.673209 Y86.739532 Z-0.125000 I-20.148680 J-15.125008
G01 X152.673209 Y86.739532 Z-0.125000
G00 Z5.000000

(End cutting path id: path4976)


(Start cutting path id: path4978)
(Change tool to Default tool)

G00 Z5.000000
G00 X149.977059 Y95.938828

G01 Z-0.125000 F10.0(Penetrate)
G02 X145.448030 Y81.931037 Z-0.125000 I-23.926795 J0.000000 F10.000000
G02 X129.474839 Y67.547681 Z-0.125000 I-41.351984 J29.861685
G02 X108.094890 Y59.081984 Z-0.125000 I-39.931491 J69.616016
G02 X79.978100 Y55.787683 Z-0.125000 I-28.116790 J118.340952
G02 X51.861310 Y59.081984 Z-0.125000 I-0.000000 J121.635253
G02 X30.481361 Y67.547681 Z-0.125000 I18.551542 J78.081714
G02 X14.508170 Y81.931037 Z-0.125000 I25.378793 J44.245041
G02 X9.979141 Y95.938828 Z-0.125000 I19.397765 J14.007791
G02 X14.508170 Y109.946620 Z-0.125000 I23.926795 J0.000001
G02 X30.481360 Y124.329977 Z-0.125000 I41.351983 J-29.861682
G02 X51.861310 Y132.795674 Z-0.125000 I39.931491 J-69.616015
G02 X79.978100 Y136.089975 Z-0.125000 I28.116790 J-118.340952
G02 X108.094890 Y132.795674 Z-0.125000 I-0.000000 J-121.635253
G02 X129.474840 Y124.329977 Z-0.125000 I-18.551542 J-78.081712
G02 X145.448030 Y109.946620 Z-0.125000 I-25.378793 J-44.245039
G02 X149.977059 Y95.938828 Z-0.125000 I-19.397765 J-14.007790
G01 X149.977059 Y95.938828 Z-0.125000
G00 Z5.000000

(End cutting path id: path4978)


(Start cutting path id: path4980)
(Change tool to Default tool)

G00 Z5.000000
G00 X145.557303 Y104.679370

G01 Z-0.125000 F10.0(Penetrate)
G02 X141.314234 Y91.555998 Z-0.125000 I-22.416148 J0.000000 F10.000000
G02 X126.349599 Y78.080786 Z-0.125000 I-38.741057 J27.976179
G02 X106.319583 Y70.149596 Z-0.125000 I-37.410226 J65.220322
G02 X79.978100 Y67.063292 Z-0.125000 I-26.341483 J110.868590
G02 X53.636617 Y70.149596 Z-0.125000 I-0.000000 J113.954895
G02 X33.606601 Y78.080786 Z-0.125000 I17.380210 J73.151512
G02 X18.641966 Y91.555998 Z-0.125000 I23.776421 J41.451390
G02 X14.398897 Y104.679371 Z-0.125000 I18.173079 J13.123372
G02 X18.641966 Y117.802742 Z-0.125000 I22.416148 J-0.000000
G02 X33.606601 Y131.277955 Z-0.125000 I38.741057 J-27.976179
G02 X53.636617 Y139.209145 Z-0.125000 I37.410226 J-65.220322
G02 X79.978100 Y142.295449 Z-0.125000 I26.341483 J-110.868590
G02 X106.319583 Y139.209145 Z-0.125000 I0.000000 J-113.954895
G02 X126.349599 Y131.277955 Z-0.125000 I-17.380210 J-73.151512
G02 X141.314234 Y117.802742 Z-0.125000 I-23.776421 J-41.451390
G02 X145.557303 Y104.679370 Z-0.125000 I-18.173079 J-13.123372
G01 X145.557303 Y104.679370 Z-0.125000
G00 Z5.000000

(End cutting path id: path4980)


(Start cutting path id: path4982)
(Change tool to Default tool)

G00 Z5.000000
G00 X139.522771 Y112.745940

G01 Z-0.125000 F10.0(Penetrate)
G02 X126.995468 Y91.118432 Z-0.125000 I-24.932838 J0.000001 F10.000000
G02 X79.978100 Y78.591129 Z-0.125000 I-47.017368 J81.968941
G02 X32.960732 Y91.118432 Z-0.125000 I-0.000000 J94.496244
G02 X20.433429 Y112.745940 Z-0.125000 I12.405535 J21.627509
G02 X24.286061 Y124.661766 Z-0.125000 I20.353577 J0.000000
G02 X37.873659 Y136.897039 Z-0.125000 I35.176213 J-25.401795
G02 X56.060538 Y144.098436 Z-0.125000 I33.967805 J-59.218648
G02 X79.978100 Y146.900751 Z-0.125000 I23.917562 J-100.666182
G02 X103.895662 Y144.098436 Z-0.125000 I0.000000 J-103.468497
G02 X122.082541 Y136.897039 Z-0.125000 I-15.780926 J-66.420045
G02 X135.670139 Y124.661766 Z-0.125000 I-21.588615 J-37.637068
G02 X139.522771 Y112.745940 Z-0.125000 I-16.500945 J-11.915826
G01 X139.522771 Y112.745940 Z-0.125000
G00 Z5.000000

(End cutting path id: path4982)


(Start cutting path id: path4984)
(Change tool to Default tool)

G00 Z5.000000
G00 X132.022049 Y119.939911

G01 Z-0.125000 F10.0(Penetrate)
G02 X121.072740 Y101.036644 Z-0.125000 I-21.792284 J0.000001 F10.000000
G02 X79.978100 Y90.087335 Z-0.125000 I-41.094640 J71.642977
G02 X38.883460 Y101.036644 Z-0.125000 I0.000000 J82.592285
G02 X27.934151 Y119.939911 Z-0.125000 I10.842975 J18.903268
G02 X31.301482 Y130.354799 Z-0.125000 I17.789875 J-0.000000
G02 X43.177471 Y141.048870 Z-0.125000 I30.745235 J-22.201922
G02 X59.073392 Y147.343160 Z-0.125000 I29.688992 J-51.758762
G02 X79.978100 Y149.792487 Z-0.125000 I20.904708 J-87.984915
G02 X100.882808 Y147.343160 Z-0.125000 I0.000000 J-90.434242
G02 X116.778729 Y141.048870 Z-0.125000 I-13.793070 J-58.053052
G02 X128.654718 Y130.354799 Z-0.125000 I-18.869247 J-32.895993
G02 X132.022049 Y119.939911 Z-0.125000 I-14.422543 J-10.414888
G01 X132.022049 Y119.939911 Z-0.125000
G00 Z5.000000

(End cutting path id: path4984)


(Start cutting path id: path4986)
(Change tool to Default tool)

G00 Z5.000000
G00 X123.239836 Y126.084141

G01 Z-0.125000 F10.0(Penetrate)
G02 X120.440719 Y117.426627 Z-0.125000 I-14.788160 J-0.000001 F10.000000
G02 X110.568768 Y108.537071 Z-0.125000 I-25.557225 J18.455352
G02 X97.355212 Y103.304867 Z-0.125000 I-24.679146 J43.024366
G02 X79.978100 Y101.268837 Z-0.125000 I-17.377112 J73.137083
G02 X62.600988 Y103.304867 Z-0.125000 I-0.000000 J75.173113
G02 X49.387432 Y108.537071 Z-0.125000 I11.465590 J48.256571
G02 X39.515481 Y117.426627 Z-0.125000 I15.685274 J27.344907
G02 X36.716364 Y126.084141 Z-0.125000 I11.989043 J8.657513
G02 X39.515482 Y134.741655 Z-0.125000 I14.788161 J-0.000000
G02 X49.387433 Y143.631209 Z-0.125000 I25.557226 J-18.455355
G02 X62.600989 Y148.863413 Z-0.125000 I24.679146 J-43.024368
G02 X79.978100 Y150.899443 Z-0.125000 I17.377111 J-73.137083
G02 X97.355211 Y148.863413 Z-0.125000 I0.000000 J-75.173113
G02 X110.568767 Y143.631209 Z-0.125000 I-11.465590 J-48.256572
G02 X120.440718 Y134.741655 Z-0.125000 I-15.685274 J-27.344909
G02 X123.239836 Y126.084141 Z-0.125000 I-11.989043 J-8.657514
G01 X123.239836 Y126.084141 Z-0.125000
G00 Z5.000000

(End cutting path id: path4986)


(Start cutting path id: path4988)
(Change tool to Default tool)

G00 Z5.000000
G00 X113.392374 Y131.027337

G01 Z-0.125000 F10.0(Penetrate)
G02 X111.230392 Y124.340358 Z-0.125000 I-11.422355 J0.000000 F10.000000
G02 X103.605560 Y117.474199 Z-0.125000 I-19.739933 J14.254341
G02 X93.399730 Y113.432908 Z-0.125000 I-19.061626 J33.230519
G02 X79.978100 Y111.860306 Z-0.125000 I-13.421630 J56.488249
G02 X66.556470 Y113.432908 Z-0.125000 I0.000000 J58.060851
G02 X56.350640 Y117.474199 Z-0.125000 I8.855797 J37.271810
G02 X48.725808 Y124.340358 Z-0.125000 I12.115101 J21.120500
G02 X46.563826 Y131.027337 Z-0.125000 I9.260373 J6.686979
G02 X48.725808 Y137.714317 Z-0.125000 I11.422355 J0.000000
G02 X56.350640 Y144.580476 Z-0.125000 I19.739933 J-14.254341
G02 X66.556470 Y148.621767 Z-0.125000 I19.061626 J-33.230519
G02 X79.978100 Y150.194369 Z-0.125000 I13.421630 J-56.488249
G02 X93.399730 Y148.621767 Z-0.125000 I-0.000000 J-58.060851
G02 X103.605560 Y144.580476 Z-0.125000 I-8.855797 J-37.271810
G02 X111.230392 Y137.714317 Z-0.125000 I-12.115101 J-21.120500
G02 X113.392374 Y131.027337 Z-0.125000 I-9.260373 J-6.686979
G01 X113.392374 Y131.027337 Z-0.125000
G00 Z5.000000

(End cutting path id: path4988)


(Start cutting path id: path4944)
(Change tool to Default tool)

G00 Z5.000000
G00 X109.319497 Y126.184523

G01 Z-0.125000 F10.0(Penetrate)
G02 X131.799459 Y107.407752 Z-0.125000 I-48.755506 J-81.216298 F10.000000
G02 X145.346685 Y85.082136 Z-0.125000 I-56.625338 J-49.633412
G02 X149.387181 Y60.168010 Z-0.125000 I-56.326438 J-21.919547
G02 X143.081843 Y39.425765 Z-0.125000 I-44.537820 J2.209355
G02 X127.739943 Y24.108319 Z-0.125000 I-38.232482 J22.951600
G02 X103.851684 Y15.960294 Z-0.125000 I-31.026087 J51.870185
G02 X77.778122 Y17.419701 Z-0.125000 I-8.892444 J74.771846
G02 X50.636703 Y28.431477 Z-0.125000 I21.614087 J92.228074
G02 X28.156741 Y47.208248 Z-0.125000 I48.755506 J81.216298
G02 X14.609515 Y69.533864 Z-0.125000 I56.625338 J49.633412
G02 X10.569019 Y94.447990 Z-0.125000 I56.326438 J21.919547
G02 X16.874357 Y115.190235 Z-0.125000 I44.537820 J-2.209355
G02 X32.216257 Y130.507681 Z-0.125000 I38.232482 J-22.951600
G02 X56.104516 Y138.655706 Z-0.125000 I31.026087 J-51.870185
G02 X82.178078 Y137.196299 Z-0.125000 I8.892444 J-74.771846
G02 X109.319497 Y126.184523 Z-0.125000 I-21.614087 J-92.228074
G01 X109.319497 Y126.184523 Z-0.125000
G00 Z5.000000

(End cutting path id: path4944)


(Start cutting path id: path4990)
(Change tool to Default tool)

G00 Z5.000000
G00 X102.722142 Y134.647794

G01 Z-0.125000 F10.0(Penetrate)
G02 X101.250529 Y130.095992 Z-0.125000 I-7.775328 J-0.000000 F10.000000
G02 X96.060566 Y125.422287 Z-0.125000 I-13.436595 J9.702329
G02 X89.113763 Y122.671411 Z-0.125000 I-12.974754 J22.618384
G02 X79.978100 Y121.600957 Z-0.125000 I-9.135663 J38.448392
G02 X70.842437 Y122.671411 Z-0.125000 I0.000000 J39.518846
G02 X63.895634 Y125.422287 Z-0.125000 I6.027950 J25.369260
G02 X58.705671 Y130.095992 Z-0.125000 I8.246632 J14.376033
G02 X57.234058 Y134.647794 Z-0.125000 I6.303716 J4.551802
G02 X62.019278 Y142.909410 Z-0.125000 I9.524393 J-0.000000
G02 X79.978100 Y147.694630 Z-0.125000 I17.958822 J-31.306916
G02 X89.113763 Y146.624176 Z-0.125000 I-0.000000 J-39.518846
G02 X96.060566 Y143.873300 Z-0.125000 I-6.027950 J-25.369260
G02 X101.250529 Y139.199595 Z-0.125000 I-8.246632 J-14.376033
G02 X102.722142 Y134.647793 Z-0.125000 I-6.303716 J-4.551802
G01 X102.722142 Y134.647794 Z-0.125000
G00 Z5.000000

(End cutting path id: path4990)


(Start cutting path id: path4992)
(Change tool to Default tool)

G00 Z5.000000
G00 X91.491874 Y136.856349

G01 Z-0.125000 F10.0(Penetrate)
G02 X90.746865 Y134.551789 Z-0.125000 I-3.936887 J-0.000001 F10.000000
G02 X88.119568 Y132.185611 Z-0.125000 I-6.802422 J4.911397
G02 X84.602843 Y130.792878 Z-0.125000 I-6.568408 J11.449257
G02 X79.978100 Y130.250927 Z-0.125000 I-4.624743 J19.461688
G02 X75.353357 Y130.792878 Z-0.125000 I-0.000000 J20.003639
G02 X71.836632 Y132.185611 Z-0.125000 I3.051683 J12.841989
G02 X69.209335 Y134.551789 Z-0.125000 I4.175125 J7.277575
G02 X68.464326 Y136.856349 Z-0.125000 I3.191879 J2.304559
G02 X70.886933 Y141.039162 Z-0.125000 I4.822276 J-0.000000
G02 X79.978100 Y143.461769 Z-0.125000 I9.091167 J-15.846629
G02 X89.069267 Y141.039162 Z-0.125000 I0.000000 J-18.269236
G02 X91.491874 Y136.856349 Z-0.125000 I-2.399669 J-4.182814
G01 X91.491874 Y136.856349 Z-0.125000
G00 Z5.000000

(End cutting path id: path4992)


(Start cutting path id: path4942)
(Change tool to Default tool)

G00 Z5.000000
G00 X87.256686 Y137.011113

G01 Z-0.125000 F10.0(Penetrate)
G02 X115.267033 Y128.819837 Z-0.125000 I-10.868997 J-89.153710 F10.000000
G02 X136.786290 Y113.226273 Z-0.125000 I-32.240006 J-67.136661
G02 X150.438321 Y91.260604 Z-0.125000 I-45.144237 J-43.283217
G02 X153.038427 Y68.400996 Z-0.125000 I-46.529582 J-16.870061
G02 X145.022340 Y46.835640 Z-0.125000 I-49.129688 J5.989548
G02 X126.492815 Y28.793321 Z-0.125000 I-51.952461 J34.819259
G02 X101.857428 Y18.826609 Z-0.125000 I-39.801147 J62.949328
G02 X72.699514 Y17.604887 Z-0.125000 I-18.288917 J87.931988
G02 X44.689167 Y25.796163 Z-0.125000 I10.868997 J89.153710
G02 X23.169910 Y41.389727 Z-0.125000 I32.240006 J67.136661
G02 X9.517879 Y63.355396 Z-0.125000 I45.144237 J43.283217
G02 X6.917773 Y86.215004 Z-0.125000 I46.529582 J16.870061
G02 X14.933860 Y107.780360 Z-0.125000 I49.129688 J-5.989548
G02 X33.463385 Y125.822679 Z-0.125000 I51.952461 J-34.819259
G02 X58.098772 Y135.789391 Z-0.125000 I39.801147 J-62.949328
G02 X87.256686 Y137.011113 Z-0.125000 I18.288917 J-87.931988
G01 X87.256686 Y137.011113 Z-0.125000
G00 Z5.000000

(End cutting path id: path4942)


(Start cutting path id: path4946)
(Change tool to Default tool)

G00 Z5.000000
G00 X118.056503 Y109.688455

G01 Z-0.125000 F10.0(Penetrate)
G02 X133.928282 Y84.794758 Z-0.125000 I-82.275546 J-69.964058 F10.000000
G02 X140.618129 Y60.557202 Z-0.125000 I-71.190171 J-32.691331
G02 X138.107871 Y36.770313 Z-0.125000 I-56.174828 J-6.097705
G02 X127.657649 Y21.238340 Z-0.125000 I-32.872113 J10.835471
G02 X110.648290 Y13.419708 Z-0.125000 I-22.421891 J26.367443
G02 X86.767136 Y14.764324 Z-0.125000 I-8.836097 J55.809647
G02 X63.919513 Y25.261910 Z-0.125000 I20.858263 J75.509578
G02 X41.899697 Y44.927545 Z-0.125000 I60.255730 J89.629693
G02 X26.027918 Y69.821242 Z-0.125000 I82.275546 J69.964058
G02 X19.338071 Y94.058798 Z-0.125000 I71.190171 J32.691331
G02 X21.848329 Y117.845687 Z-0.125000 I56.174828 J6.097705
G02 X32.298551 Y133.377660 Z-0.125000 I32.872113 J-10.835471
G02 X49.307910 Y141.196292 Z-0.125000 I22.421891 J-26.367443
G02 X73.189064 Y139.851676 Z-0.125000 I8.836097 J-55.809647
G02 X96.036687 Y129.354090 Z-0.125000 I-20.858263 J-75.509578
G02 X118.056503 Y109.688455 Z-0.125000 I-60.255730 J-89.629693
G01 X118.056503 Y109.688455 Z-0.125000
G00 Z5.000000

(End cutting path id: path4946)


(Start cutting path id: path4948)
(Change tool to Default tool)

G00 Z5.000000
G00 X115.377456 Y94.958239

G01 Z-0.125000 F10.0(Penetrate)
G02 X125.695380 Y66.954133 Z-0.125000 I-122.178983 J-60.918857 F10.000000
G02 X128.231936 Y43.213087 Z-0.125000 I-84.802501 J-21.066553
G02 X122.932901 Y21.664029 Z-0.125000 I-53.074440 J1.625243
G02 X112.819973 Y11.440273 Z-0.125000 I-20.062858 J9.731842
G02 X97.926117 Y9.571243 Z-0.125000 I-10.108283 J20.273193
G02 X78.169686 Y18.251879 Z-0.125000 I11.409148 J52.788646
G02 X61.387514 Y33.811465 Z-0.125000 I49.984989 J70.742737
G02 X44.578744 Y59.657761 Z-0.125000 I104.383699 J86.273273
G02 X34.260820 Y87.661867 Z-0.125000 I122.178983 J60.918857
G02 X31.724264 Y111.402913 Z-0.125000 I84.802501 J21.066553
G02 X37.023299 Y132.951971 Z-0.125000 I53.074440 J-1.625243
G02 X47.136227 Y143.175727 Z-0.125000 I20.062858 J-9.731842
G02 X62.030083 Y145.044757 Z-0.125000 I10.108283 J-20.273193
G02 X81.786514 Y136.364121 Z-0.125000 I-11.409148 J-52.788646
G02 X98.568686 Y120.804535 Z-0.125000 I-49.984989 J-70.742737
G02 X115.377456 Y94.958239 Z-0.125000 I-104.383699 J-86.273273
G01 X115.377456 Y94.958239 Z-0.125000
G00 Z5.000000

(End cutting path id: path4948)


(Start cutting path id: path4950)
(Change tool to Default tool)

G00 Z5.000000
G00 X105.431896 Y84.428765

G01 Z-0.125000 F10.0(Penetrate)
G02 X111.396807 Y54.842845 Z-0.125000 I-197.010208 J-55.114114 F10.000000
G02 X111.997759 Y32.223469 Z-0.125000 I-114.087100 J-14.348742
G02 X106.768267 Y12.303969 Z-0.125000 I-55.909894 J4.031896
G02 X99.806941 Y6.428079 Z-0.125000 I-9.916135 J4.686334
G02 X90.807164 Y7.838809 Z-0.125000 I-2.954809 J10.562224
G02 X76.000656 Y22.153186 Z-0.125000 I30.895239 J46.772391
G02 X64.777278 Y41.800911 Z-0.125000 I93.748065 J66.581176
G02 X54.524304 Y70.187235 Z-0.125000 I186.757234 J83.500437
G02 X48.559393 Y99.773155 Z-0.125000 I197.010208 J55.114114
G02 X47.958441 Y122.392531 Z-0.125000 I114.087100 J14.348742
G02 X53.187933 Y142.312031 Z-0.125000 I55.909894 J-4.031896
G02 X60.149259 Y148.187921 Z-0.125000 I9.916135 J-4.686334
G02 X69.149036 Y146.777191 Z-0.125000 I2.954809 J-10.562224
G02 X83.955544 Y132.462814 Z-0.125000 I-30.895239 J-46.772391
G02 X95.178922 Y112.815089 Z-0.125000 I-93.748065 J-66.581176
G02 X105.431896 Y84.428765 Z-0.125000 I-186.757234 J-83.500437
G01 X105.431896 Y84.428765 Z-0.125000
G00 Z5.000000

(End cutting path id: path4950)


(Start cutting path id: path4932)
(Change tool to Default tool)

G00 Z5.000000
G00 X99.236208 Y73.504571

G01 Z-0.125000 F10.0(Penetrate)
G02 X91.736328 Y44.132939 Z-0.125000 I-270.426974 J53.408659 F10.000000
G02 X83.511866 Y23.560852 Z-0.125000 I-140.442575 J44.217114
G02 X71.944378 Y7.057577 Z-0.125000 I-58.347084 J28.591098
G02 X65.717491 Y5.101483 Z-0.125000 I-4.906458 J4.729704
G02 X60.701773 Y9.277964 Z-0.125000 I1.320429 J6.685799
G02 X56.276788 Y28.939712 Z-0.125000 I60.410665 J23.924560
G02 X56.490654 Y51.093873 Z-0.125000 I146.921606 J9.659797
G02 X60.719992 Y81.111429 Z-0.125000 I274.656311 J-23.391103
G02 X68.219872 Y110.483061 Z-0.125000 I270.426974 J-53.408659
G02 X76.444334 Y131.055148 Z-0.125000 I140.442575 J-44.217114
G02 X88.011822 Y147.558423 Z-0.125000 I58.347084 J-28.591098
G02 X94.238709 Y149.514517 Z-0.125000 I4.906458 J-4.729704
G02 X99.254427 Y145.338036 Z-0.125000 I-1.320429 J-6.685799
G02 X103.679412 Y125.676288 Z-0.125000 I-60.410665 J-23.924560
G02 X103.465546 Y103.522127 Z-0.125000 I-146.921606 J-9.659797
G02 X99.236208 Y73.504571 Z-0.125000 I-274.656311 J23.391103
G01 X99.236208 Y73.504571 Z-0.125000
G00 Z5.000000

(End cutting path id: path4932)


(Start cutting path id: path4952)
(Change tool to Default tool)

G00 Z5.000000
G00 X91.412635 Y78.582860

G01 Z-0.125000 F10.0(Penetrate)
G02 X93.804810 Y48.250910 Z-0.125000 I-467.741074 J-52.149404 F10.000000
G02 X93.830293 Y26.485990 Z-0.125000 I-240.570382 J-11.164140
G02 X90.879671 Y6.549150 Z-0.125000 I-98.008117 J4.318289
G02 X88.133523 Y4.159964 Z-0.125000 I-3.100734 J0.791192
G02 X84.928600 Y5.885653 Z-0.125000 I-0.354587 J3.180378
G02 X77.659418 Y24.683066 Z-0.125000 I87.381189 J44.595589
G02 X72.890631 Y45.919146 Z-0.125000 I232.353080 J63.330821
G02 X68.543565 Y76.033140 Z-0.125000 I463.394007 J82.263399
G02 X66.151390 Y106.365090 Z-0.125000 I467.741074 J52.149404
G02 X66.125907 Y128.130010 Z-0.125000 I240.570382 J11.164140
G02 X69.076529 Y148.066850 Z-0.125000 I98.008117 J-4.318289
G02 X71.822677 Y150.456036 Z-0.125000 I3.100734 J-0.791192
G02 X75.027600 Y148.730347 Z-0.125000 I0.354587 J-3.180378
G02 X82.296782 Y129.932934 Z-0.125000 I-87.381189 J-44.595589
G02 X87.065569 Y108.696854 Z-0.125000 I-232.353080 J-63.330821
G02 X91.412635 Y78.582860 Z-0.125000 I-463.394007 J-82.263399
G01 X91.412635 Y78.582860 Z-0.125000
G00 Z5.000000

(End cutting path id: path4952)


(Start cutting path id: path4930)
(Change tool to Default tool)

G00 Z5.000000
G00 X84.181773 Y77.139397

G01 Z-0.125000 F10.0(Penetrate)
G02 X82.599952 Y46.701998 Z-0.125000 I-1286.525831 J51.600471 F10.000000
G02 X80.864824 Y25.186638 Z-0.125000 I-644.481392 J41.147226
G02 X78.016920 Y4.559902 Z-0.125000 I-259.015633 J25.251939
G02 X77.028444 Y3.765865 Z-0.125000 I-0.949806 J0.170107
G02 X76.106735 Y4.636516 Z-0.125000 I0.038670 J0.964143
G02 X74.919933 Y25.425078 Z-0.125000 I259.019196 J25.215360
G02 X74.913498 Y47.010289 Z-0.125000 I645.700152 J10.985083
G02 X75.774427 Y77.476603 Z-0.125000 I1287.386760 J-21.134158
G02 X77.356248 Y107.914002 Z-0.125000 I1286.525831 J-51.600471
G02 X79.091376 Y129.429362 Z-0.125000 I644.481392 J-41.147226
G02 X81.939280 Y150.056098 Z-0.125000 I259.015633 J-25.251939
G02 X82.927756 Y150.850135 Z-0.125000 I0.949806 J-0.170107
G02 X83.849465 Y149.979484 Z-0.125000 I-0.038670 J-0.964143
G02 X85.036267 Y129.190922 Z-0.125000 I-259.019196 J-25.215360
G02 X85.042702 Y107.605711 Z-0.125000 I-645.700152 J-10.985083
G02 X84.181773 Y77.139397 Z-0.125000 I-1287.386760 J21.134158
G01 X84.181773 Y77.139397 Z-0.125000
G00 Z5.000000

(End cutting path id: path4930)


(Start cutting path id: path4934)
(Change tool to Default tool)

G00 Z5.000000
G00 X111.422346 Y65.142760

G01 Z-0.125000 F10.0(Penetrate)
G02 X98.023348 Y38.294947 Z-0.125000 I-149.456604 J57.822199 F10.000000
G02 X83.434009 Y20.167851 Z-0.125000 I-81.821568 J50.918382
G02 X65.420550 Y8.645989 Z-0.125000 I-36.988263 J37.985834
G02 X53.421248 Y8.664867 Z-0.125000 I-5.975139 J15.589904
G02 X44.533655 Y16.726771 Z-0.125000 I6.024163 J15.571026
G02 X38.965130 Y37.372099 Z-0.125000 I47.354154 J23.846159
G02 X40.374651 Y60.598240 Z-0.125000 I96.195640 J5.818036
G02 X48.533854 Y89.473240 Z-0.125000 I157.615808 J-28.947199
G02 X61.932852 Y116.321053 Z-0.125000 I149.456604 J-57.822199
G02 X76.522191 Y134.448149 Z-0.125000 I81.821568 J-50.918382
G02 X94.535650 Y145.970011 Z-0.125000 I36.988263 J-37.985834
G02 X106.534952 Y145.951133 Z-0.125000 I5.975139 J-15.589904
G02 X115.422545 Y137.889229 Z-0.125000 I-6.024163 J-15.571026
G02 X120.991070 Y117.243901 Z-0.125000 I-47.354154 J-23.846159
G02 X119.581549 Y94.017760 Z-0.125000 I-96.195640 J-5.818036
G02 X111.422346 Y65.142760 Z-0.125000 I-157.615808 J28.947199
G01 X111.422346 Y65.142760 Z-0.125000
G00 Z5.000000

(End cutting path id: path4934)


(Start cutting path id: path4936)
(Change tool to Default tool)

G00 Z5.000000
G00 X117.958649 Y52.247509

G01 Z-0.125000 F10.0(Penetrate)
G02 X98.653215 Y29.723249 Z-0.125000 I-99.028479 J65.341401 F10.000000
G02 X78.171713 Y16.147676 Z-0.125000 I-54.697184 J60.283752
G02 X55.593737 Y11.088498 Z-0.125000 I-22.962972 J49.568779
G02 X39.442934 Y15.874732 Z-0.125000 I-0.204059 J28.954399
G02 X28.689314 Y28.840691 Z-0.125000 I15.946744 J24.168166
G02 X24.459105 Y51.588563 Z-0.125000 I50.375293 J21.135083
G02 X28.883391 Y75.759077 Z-0.125000 I81.364229 J-2.403115
G02 X41.997551 Y102.368491 Z-0.125000 I112.142639 J-38.731987
G02 X61.302985 Y124.892751 Z-0.125000 I99.028479 J-65.341401
G02 X81.784487 Y138.468324 Z-0.125000 I54.697184 J-60.283752
G02 X104.362463 Y143.527502 Z-0.125000 I22.962972 J-49.568779
G02 X120.513266 Y138.741268 Z-0.125000 I0.204059 J-28.954399
G02 X131.266886 Y125.775309 Z-0.125000 I-15.946744 J-24.168166
G02 X135.497095 Y103.027437 Z-0.125000 I-50.375293 J-21.135083
G02 X131.072809 Y78.856923 Z-0.125000 I-81.364229 J2.403115
G02 X117.958649 Y52.247509 Z-0.125000 I-112.142639 J38.731987
G01 X117.958649 Y52.247509 Z-0.125000
G00 Z5.000000

(End cutting path id: path4936)


(Start cutting path id: path4938)
(Change tool to Default tool)

G00 Z5.000000
G00 X115.082371 Y36.025160

G01 Z-0.125000 F10.0(Penetrate)
G02 X90.134353 Y20.499058 Z-0.125000 I-64.541356 J75.901034 F10.000000
G02 X65.152802 Y14.402714 Z-0.125000 I-30.320713 J70.015214
G02 X40.703743 Y17.893248 Z-0.125000 I-4.109678 J58.584846
G02 X23.907691 Y29.629332 Z-0.125000 I14.000298 J37.923318
G02 X15.023609 Y48.093245 Z-0.125000 I30.796350 J26.187234
G02 X15.507866 Y72.785466 Z-0.125000 I57.647016 J11.220302
G02 X25.539955 Y96.462469 Z-0.125000 I74.264027 J-17.502287
G02 X44.873829 Y118.590840 Z-0.125000 I83.875230 J-53.772663
G02 X69.821847 Y134.116942 Z-0.125000 I64.541356 J-75.901034
G02 X94.803398 Y140.213286 Z-0.125000 I30.320713 J-70.015214
G02 X119.252457 Y136.722752 Z-0.125000 I4.109678 J-58.584846
G02 X136.048509 Y124.986668 Z-0.125000 I-14.000298 J-37.923318
G02 X144.932591 Y106.522755 Z-0.125000 I-30.796350 J-26.187234
G02 X144.448334 Y81.830534 Z-0.125000 I-57.647016 J-11.220302
G02 X134.416245 Y58.153531 Z-0.125000 I-74.264027 J17.502287
G02 X115.082371 Y36.025160 Z-0.125000 I-83.875230 J53.772663
G01 X115.082371 Y36.025160 Z-0.125000
G00 Z5.000000

(End cutting path id: path4938)


(Start cutting path id: path4962)
(Change tool to Default tool)

G00 Z5.000000
G00 X123.239836 Y28.531859

G01 Z-0.125000 F10.0(Penetrate)
G02 X120.440718 Y19.874345 Z-0.125000 I-14.788161 J0.000000 F10.000000
G02 X110.568767 Y10.984791 Z-0.125000 I-25.557226 J18.455355
G02 X97.355211 Y5.752587 Z-0.125000 I-24.679146 J43.024368
G02 X79.978100 Y3.716557 Z-0.125000 I-17.377111 J73.137083
G02 X45.818078 Y12.818271 Z-0.125000 I0.000000 J68.654560
G02 X36.716364 Y28.531859 Z-0.125000 I9.013449 J15.713589
G02 X39.515481 Y37.189373 Z-0.125000 I14.788160 J0.000001
G02 X49.387432 Y46.078929 Z-0.125000 I25.557225 J-18.455352
G02 X62.600988 Y51.311133 Z-0.125000 I24.679146 J-43.024366
G02 X79.978100 Y53.347163 Z-0.125000 I17.377112 J-73.137083
G02 X97.355212 Y51.311133 Z-0.125000 I0.000000 J-75.173113
G02 X110.568768 Y46.078929 Z-0.125000 I-11.465590 J-48.256571
G02 X120.440719 Y37.189373 Z-0.125000 I-15.685274 J-27.344907
G02 X123.239836 Y28.531859 Z-0.125000 I-11.989043 J-8.657513
G01 X123.239836 Y28.531859 Z-0.125000
G00 Z5.000000

(End cutting path id: path4962)


(Start cutting path id: path4964)
(Change tool to Default tool)

G00 Z5.000000
G00 X132.022049 Y34.676089

G01 Z-0.125000 F10.0(Penetrate)
G02 X128.654718 Y24.261201 Z-0.125000 I-17.789875 J-0.000000 F10.000000
G02 X116.778729 Y13.567130 Z-0.125000 I-30.745235 J22.201922
G02 X100.882808 Y7.272840 Z-0.125000 I-29.688992 J51.758762
G02 X79.978100 Y4.823513 Z-0.125000 I-20.904708 J87.984915
G02 X38.883459 Y15.772822 Z-0.125000 I-0.000000 J82.592285
G02 X27.934151 Y34.676089 Z-0.125000 I10.842975 J18.903267
G02 X38.883460 Y53.579356 Z-0.125000 I21.792284 J-0.000001
G02 X79.978100 Y64.528665 Z-0.125000 I41.094640 J-71.642977
G02 X121.072740 Y53.579356 Z-0.125000 I-0.000000 J-82.592285
G02 X132.022049 Y34.676089 Z-0.125000 I-10.842975 J-18.903268
G01 X132.022049 Y34.676089 Z-0.125000
G00 Z5.000000

(End cutting path id: path4964)


(Start cutting path id: path4966)
(Change tool to Default tool)

G00 Z5.000000
G00 X139.522771 Y41.870060

G01 Z-0.125000 F10.0(Penetrate)
G02 X135.670139 Y29.954234 Z-0.125000 I-20.353577 J-0.000000 F10.000000
G02 X122.082541 Y17.718961 Z-0.125000 I-35.176213 J25.401795
G02 X103.895662 Y10.517564 Z-0.125000 I-33.967805 J59.218648
G02 X79.978100 Y7.715249 Z-0.125000 I-23.917562 J100.666182
G02 X32.960732 Y20.242552 Z-0.125000 I-0.000000 J94.496244
G02 X20.433429 Y41.870060 Z-0.125000 I12.405534 J21.627508
G02 X32.960732 Y63.497568 Z-0.125000 I24.932838 J-0.000001
G02 X79.978100 Y76.024871 Z-0.125000 I47.017368 J-81.968941
G02 X126.995468 Y63.497568 Z-0.125000 I0.000000 J-94.496244
G02 X139.522771 Y41.870060 Z-0.125000 I-12.405535 J-21.627509
G01 X139.522771 Y41.870060 Z-0.125000
G00 Z5.000000

(End cutting path id: path4966)


(Start cutting path id: path4968)
(Change tool to Default tool)

G00 Z5.000000
G00 X145.557303 Y49.936630

G01 Z-0.125000 F10.0(Penetrate)
G02 X141.314234 Y36.813258 Z-0.125000 I-22.416148 J-0.000000 F10.000000
G02 X126.349599 Y23.338045 Z-0.125000 I-38.741056 J27.976178
G02 X106.319583 Y15.406855 Z-0.125000 I-37.410226 J65.220322
G02 X79.978100 Y12.320551 Z-0.125000 I-26.341483 J110.868590
G02 X53.636617 Y15.406855 Z-0.125000 I0.000000 J113.954895
G02 X33.606601 Y23.338045 Z-0.125000 I17.380210 J73.151512
G02 X18.641966 Y36.813258 Z-0.125000 I23.776421 J41.451390
G02 X14.398897 Y49.936630 Z-0.125000 I18.173079 J13.123372
G02 X18.641966 Y63.060002 Z-0.125000 I22.416148 J0.000000
G02 X33.606601 Y76.535214 Z-0.125000 I38.741057 J-27.976179
G02 X53.636617 Y84.466404 Z-0.125000 I37.410226 J-65.220322
G02 X79.978100 Y87.552708 Z-0.125000 I26.341483 J-110.868590
G02 X106.319583 Y84.466404 Z-0.125000 I0.000000 J-113.954895
G02 X126.349599 Y76.535214 Z-0.125000 I-17.380210 J-73.151512
G02 X141.314234 Y63.060002 Z-0.125000 I-23.776421 J-41.451390
G02 X145.557303 Y49.936629 Z-0.125000 I-18.173079 J-13.123372
G01 X145.557303 Y49.936630 Z-0.125000
G00 Z5.000000

(End cutting path id: path4968)


(Start cutting path id: path4970)
(Change tool to Default tool)

G00 Z5.000000
G00 X149.977059 Y58.677172

G01 Z-0.125000 F10.0(Penetrate)
G02 X145.448030 Y44.669380 Z-0.125000 I-23.926794 J-0.000001 F10.000000
G02 X129.474840 Y30.286023 Z-0.125000 I-41.351983 J29.861682
G02 X108.094890 Y21.820326 Z-0.125000 I-39.931491 J69.616015
G02 X79.978100 Y18.526025 Z-0.125000 I-28.116790 J118.340952
G02 X51.861310 Y21.820326 Z-0.125000 I0.000000 J121.635253
G02 X30.481360 Y30.286023 Z-0.125000 I18.551542 J78.081712
G02 X14.508170 Y44.669380 Z-0.125000 I25.378793 J44.245039
G02 X9.979141 Y58.677172 Z-0.125000 I19.397765 J14.007790
G02 X14.508170 Y72.684963 Z-0.125000 I23.926795 J-0.000000
G02 X30.481361 Y87.068319 Z-0.125000 I41.351984 J-29.861685
G02 X51.861310 Y95.534016 Z-0.125000 I39.931491 J-69.616016
G02 X79.978100 Y98.828317 Z-0.125000 I28.116790 J-118.340952
G02 X108.094890 Y95.534016 Z-0.125000 I0.000000 J-121.635253
G02 X129.474839 Y87.068319 Z-0.125000 I-18.551542 J-78.081714
G02 X145.448030 Y72.684963 Z-0.125000 I-25.378793 J-44.245041
G02 X149.977059 Y58.677172 Z-0.125000 I-19.397765 J-14.007791
G01 X149.977059 Y58.677172 Z-0.125000
G00 Z5.000000

(End cutting path id: path4970)


(Start cutting path id: path4972)
(Change tool to Default tool)

G00 Z5.000000
G00 X152.673209 Y67.876468

G01 Z-0.125000 F10.0(Penetrate)
G02 X147.627938 Y52.751462 Z-0.125000 I-25.193951 J0.000001 F10.000000
G02 X131.381304 Y38.391818 Z-0.125000 I-42.996912 J32.276489
G02 X110.132613 Y29.859377 Z-0.125000 I-41.133086 J71.710957
G02 X79.978100 Y26.178877 Z-0.125000 I-30.154513 J121.688418
G02 X49.823587 Y29.859377 Z-0.125000 I0.000000 J125.368919
G02 X28.574896 Y38.391818 Z-0.125000 I19.884395 J80.243398
G02 X12.328262 Y52.751462 Z-0.125000 I26.750278 J46.636132
G02 X7.282991 Y67.876468 Z-0.125000 I20.148680 J15.125008
G02 X11.986462 Y82.423774 Z-0.125000 I24.848322 J0.000000
G02 X28.574895 Y97.361119 Z-0.125000 I42.944708 J-31.011886
G02 X50.778334 Y106.152877 Z-0.125000 I41.469519 J-72.297488
G02 X79.978100 Y109.574061 Z-0.125000 I29.199766 J-122.899260
G02 X110.132613 Y105.893560 Z-0.125000 I0.000000 J-125.368919
G02 X131.381305 Y97.361119 Z-0.125000 I-19.884395 J-80.243397
G02 X147.627939 Y83.001475 Z-0.125000 I-26.750278 J-46.636130
G02 X152.673209 Y67.876468 Z-0.125000 I-20.148680 J-15.125007
G01 X152.673209 Y67.876468 Z-0.125000
G00 Z5.000000

(End cutting path id: path4972)


(Start cutting path id: path4960)
(Change tool to Default tool)

G00 Z5.000000
G00 X113.392374 Y23.588663

G01 Z-0.125000 F10.0(Penetrate)
G02 X111.230392 Y16.901683 Z-0.125000 I-11.422355 J0.000000 F10.000000
G02 X103.605560 Y10.035524 Z-0.125000 I-19.739933 J14.254341
G02 X93.399730 Y5.994233 Z-0.125000 I-19.061626 J33.230519
G02 X79.978100 Y4.421631 Z-0.125000 I-13.421630 J56.488249
G02 X66.556470 Y5.994233 Z-0.125000 I0.000000 J58.060851
G02 X56.350640 Y10.035524 Z-0.125000 I8.855797 J37.271810
G02 X48.725808 Y16.901683 Z-0.125000 I12.115101 J21.120500
G02 X46.563826 Y23.588663 Z-0.125000 I9.260373 J6.686979
G02 X53.593840 Y35.725680 Z-0.125000 I13.992027 J-0.000000
G02 X79.978100 Y42.755694 Z-0.125000 I26.384260 J-45.996214
G02 X93.399730 Y41.183092 Z-0.125000 I0.000000 J-58.060851
G02 X103.605560 Y37.141801 Z-0.125000 I-8.855797 J-37.271810
G02 X111.230392 Y30.275642 Z-0.125000 I-12.115101 J-21.120500
G02 X113.392374 Y23.588663 Z-0.125000 I-9.260373 J-6.686979
G01 X113.392374 Y23.588663 Z-0.125000
G00 Z5.000000

(End cutting path id: path4960)


(Start cutting path id: path4958)
(Change tool to Default tool)

G00 Z5.000000
G00 X102.722142 Y19.968206

G01 Z-0.125000 F10.0(Penetrate)
G02 X101.250529 Y15.416405 Z-0.125000 I-7.775328 J-0.000000 F10.000000
G02 X96.060566 Y10.742700 Z-0.125000 I-13.436595 J9.702329
G02 X89.113763 Y7.991824 Z-0.125000 I-12.974754 J22.618384
G02 X79.978100 Y6.921370 Z-0.125000 I-9.135663 J38.448392
G02 X70.842437 Y7.991824 Z-0.125000 I-0.000000 J39.518846
G02 X63.895634 Y10.742700 Z-0.125000 I6.027950 J25.369260
G02 X58.705671 Y15.416405 Z-0.125000 I8.246632 J14.376033
G02 X57.234058 Y19.968207 Z-0.125000 I6.303716 J4.551802
G02 X62.019278 Y28.229823 Z-0.125000 I9.524393 J-0.000000
G02 X79.978100 Y33.015043 Z-0.125000 I17.958822 J-31.306916
G02 X89.113763 Y31.944589 Z-0.125000 I-0.000000 J-39.518846
G02 X96.060566 Y29.193713 Z-0.125000 I-6.027950 J-25.369260
G02 X101.250529 Y24.520008 Z-0.125000 I-8.246632 J-14.376033
G02 X102.722142 Y19.968206 Z-0.125000 I-6.303716 J-4.551802
G01 X102.722142 Y19.968206 Z-0.125000
G00 Z5.000000

(End cutting path id: path4958)


(Start cutting path id: path4940)
(Change tool to Default tool)

G00 Z5.000000
G00 X98.974001 Y21.255009

G01 Z-0.125000 F10.0(Penetrate)
G02 X70.159241 Y16.427790 Z-0.125000 I-29.291540 J86.433303 F10.000000
G02 X44.119811 Y20.968430 Z-0.125000 I-0.390247 J74.697153
G02 X22.363372 Y34.591803 Z-0.125000 I21.246947 J58.115369
G02 X10.270921 Y53.684806 Z-0.125000 I33.333660 J34.487542
G02 X8.264132 Y76.195758 Z-0.125000 I45.426111 J15.394538
G02 X17.255551 Y100.239329 Z-0.125000 I61.192660 J-9.180807
G02 X35.169469 Y119.675400 Z-0.125000 I63.017015 J-40.108263
G02 X60.982199 Y133.360991 Z-0.125000 I55.104270 J-72.747711
G02 X89.796959 Y138.188210 Z-0.125000 I29.291540 J-86.433303
G02 X115.836389 Y133.647570 Z-0.125000 I0.390247 J-74.697153
G02 X137.592828 Y120.024197 Z-0.125000 I-21.246947 J-58.115369
G02 X149.685279 Y100.931194 Z-0.125000 I-33.333660 J-34.487542
G02 X151.692068 Y78.420242 Z-0.125000 I-45.426111 J-15.394538
G02 X142.700649 Y54.376671 Z-0.125000 I-61.192660 J9.180807
G02 X124.786731 Y34.940600 Z-0.125000 I-63.017015 J40.108263
G02 X98.974001 Y21.255009 Z-0.125000 I-55.104270 J72.747711
G01 X98.974001 Y21.255009 Z-0.125000
G00 Z5.000000

(End cutting path id: path4940)


(Start cutting path id: path4956)
(Change tool to Default tool)

G00 Z5.000000
G00 X91.491874 Y17.759651

G01 Z-0.125000 F10.0(Penetrate)
G02 X89.069267 Y13.576838 Z-0.125000 I-4.822276 J0.000000 F10.000000
G02 X79.978100 Y11.154231 Z-0.125000 I-9.091167 J15.846629
G02 X70.886933 Y13.576838 Z-0.125000 I-0.000000 J18.269236
G02 X68.464326 Y17.759651 Z-0.125000 I2.399669 J4.182814
G02 X69.209335 Y20.064211 Z-0.125000 I3.936887 J0.000001
G02 X71.836632 Y22.430389 Z-0.125000 I6.802422 J-4.911397
G02 X75.353357 Y23.823122 Z-0.125000 I6.568408 J-11.449257
G02 X79.978100 Y24.365073 Z-0.125000 I4.624743 J-19.461688
G02 X84.602843 Y23.823122 Z-0.125000 I0.000000 J-20.003639
G02 X88.119568 Y22.430389 Z-0.125000 I-3.051683 J-12.841989
G02 X90.746865 Y20.064211 Z-0.125000 I-4.175125 J-7.277575
G02 X91.491874 Y17.759651 Z-0.125000 I-3.191879 J-2.304559
G01 X91.491874 Y17.759651 Z-0.125000
G00 Z5.000000

(End cutting path id: path4956)


(Footer)
M5
G00 X0.0000 Y0.0000
M2
(Using default footer. To add your own footer create file "footer" in the output dir.)
(end)
%